<?xml version="1.0" encoding="UTF-8"?>
<map version="1.10" tiledversion="1.12.2" orientation="orthogonal" renderorder="right-down" width="50" height="50" tilewidth="16" tileheight="16" infinite="0" nextlayerid="7" nextobjectid="52">
 <tileset firstgid="1" source="mata_atlantica.tsx"/>
 <layer id="1" name="Terreno" width="50" height="50">
  <data encoding="csv">
31,31,31,31,31,31,31,31,31,31,31,31,31,31,31,31,31,31,31,31,31,31,31,31,31,31,31,31,31,31,32,31,31,31,31,31,31,31,31,31,31,31,31,31,31,31,31,31,31,31,
31,31,31,47,47,31,32,31,31,31,31,31,31,31,31,31,31,31,31,31,31,31,31,31,31,31,31,31,31,31,31,32,31,31,31,31,31,31,31,31,31,31,31,31,31,31,32,31,31,31,
31,47,31,31,31,31,31,31,31,31,31,31,32,31,31,31,29,31,31,31,31,31,31,31,31,31,29,31,31,31,31,31,32,31,31,31,31,31,31,36,31,31,31,31,31,31,31,31,31,31,
31,31,31,29,31,47,47,31,36,47,31,31,31,31,31,31,29,31,31,31,31,31,31,29,29,31,31,31,31,31,31,31,36,31,31,31,31,31,31,46,30,31,31,31,31,31,31,31,31,31,
31,31,31,31,31,32,47,31,31,31,47,32,47,46,31,32,31,31,31,31,31,31,31,31,31,31,31,31,31,31,31,31,33,31,31,31,36,30,31,31,31,31,31,31,31,33,31,31,31,31,
31,31,31,31,47,31,47,47,36,47,31,31,31,31,31,31,31,31,31,31,31,31,31,31,31,32,31,31,31,46,30,31,31,31,31,31,31,31,36,31,31,31,31,31,31,31,31,31,31,31,
31,31,31,31,38,38,38,38,38,38,25,25,25,25,25,33,31,31,31,31,32,31,1610612763,1610612763,27,27,27,27,27,27,27,27,27,27,27,27,27,27,27,27,27,27,27,27,27,27,27,27,27,27,
31,31,31,31,38,38,38,38,38,38,38,38,38,25,25,46,31,31,31,31,31,31,1610612763,1610612763,24,24,24,24,24,24,24,24,24,24,24,24,24,24,24,24,24,24,24,24,24,24,24,24,24,24,
31,31,31,31,38,38,38,38,38,38,38,38,38,38,38,31,31,31,31,31,31,31,1610612763,1610612760,43,1610612780,1610612780,1610612780,1610612780,1610612780,1610612780,1610612780,1610612780,1610612780,1610612780,1610612780,1610612780,1610612780,1610612780,1610612780,1610612780,1610612780,1610612780,1610612780,1610612780,1610612780,1610612780,1610612780,1610612780,1610612780,
31,31,31,31,38,38,38,38,38,38,38,38,38,38,38,31,31,31,31,31,31,31,1610612763,1610612760,43,1610612777,1610612777,1610612777,1610612777,1610612777,1610612777,1610612777,1610612777,1610612777,1610612777,1610612777,1610612777,1610612777,1610612777,1610612777,1610612777,1610612777,1610612777,1610612777,1610612777,1610612777,1610612777,1610612777,1610612777,1610612777,
31,31,31,31,38,38,38,38,38,38,38,38,38,38,38,31,31,31,31,31,31,31,1610612763,1610612760,41,44,3221225496,3221225496,3221225496,3221225496,3221225496,3221225496,3221225496,3221225496,3221225496,3221225496,3221225496,3221225496,3221225496,3221225496,3221225496,3221225496,3221225496,3221225496,3221225496,3221225496,3221225496,3221225496,3221225496,3221225496,
31,31,31,31,38,38,38,38,38,38,38,38,38,38,38,29,31,31,46,31,31,31,1610612763,1610612760,41,44,2684354584,3221225499,3221225499,3221225499,3221225499,3221225499,3221225499,3221225499,3221225499,3221225499,3221225499,3221225499,3221225499,3221225499,3221225499,3221225499,3221225499,3221225499,3221225499,3221225499,3221225499,3221225499,3221225499,3221225499,
31,31,31,31,1610612763,1610612763,27,27,27,27,27,27,27,27,27,27,27,27,27,27,27,27,1610612763,1610612760,41,44,2684354584,2684354587,25,25,25,25,25,25,25,25,25,25,25,25,25,25,25,25,25,25,25,25,25,25,
31,31,31,31,1610612763,1610612763,24,24,24,24,24,24,24,24,24,24,24,24,24,24,24,24,24,24,41,44,2684354584,2684354587,25,38,38,38,38,38,38,38,38,38,38,38,38,38,38,38,38,38,38,38,38,25,
31,31,31,31,1610612763,1610612760,43,43,1610612780,1610612780,1610612780,1610612780,1610612780,1610612780,1610612780,1610612780,1610612780,1610612780,1610612780,1610612780,1610612780,1610612780,1610612780,1610612780,3221225516,3221225513,2684354584,2684354587,25,31,9,9,31,31,9,9,31,31,9,9,31,31,9,9,31,31,9,9,31,25,
31,31,31,31,1610612763,1610612760,41,44,1610612777,1610612777,1610612777,1610612777,1610612777,1610612777,1610612777,1610612777,1610612777,1610612777,1610612777,1610612777,1610612777,1610612777,1610612777,1610612777,43,43,2684354584,2684354587,25,31,9,9,31,31,9,9,31,31,9,9,31,31,9,9,31,31,9,9,31,25,
31,31,31,46,1610612763,1610612760,41,44,3221225496,3221225496,3221225496,3221225496,3221225496,3221225496,3221225496,3221225496,3221225496,3221225496,3221225496,3221225496,3221225496,3221225496,3221225496,3221225496,3221225496,3221225496,2684354587,2684354587,25,31,9,9,31,31,9,9,31,31,9,9,31,31,9,9,31,31,9,9,31,25,
31,31,31,31,1610612763,1610612760,41,44,2684354584,2684354587,3221225499,3221225499,3221225499,3221225499,3221225499,3221225499,3221225499,3221225499,3221225499,3221225499,3221225499,3221225499,3221225499,3221225499,3221225499,3221225499,2684354587,2684354587,25,31,9,9,31,31,9,9,31,31,9,9,31,31,9,9,31,31,9,9,31,25,
31,31,31,31,1610612763,1610612760,41,44,2684354584,2684354587,38,38,38,38,38,38,38,31,31,31,31,31,31,31,31,31,32,31,25,31,9,9,31,31,9,9,31,31,9,9,31,31,9,9,31,31,9,9,31,25,
31,31,46,31,1610612763,1610612760,41,44,2684354584,2684354587,38,38,38,38,38,38,38,31,31,31,31,31,31,31,31,31,31,29,25,31,9,9,31,31,9,9,31,31,9,9,31,31,9,9,31,31,9,9,31,25,
31,31,31,30,1610612763,1610612760,41,44,2684354581,2684354587,38,38,38,38,38,38,38,31,31,32,31,31,46,31,31,31,31,33,25,31,9,9,31,31,9,9,31,31,9,9,31,31,9,9,31,31,9,9,31,25,
31,31,31,31,1610612763,1610612760,41,44,2684354581,2684354587,38,38,38,38,38,38,38,31,31,31,31,31,31,31,31,31,31,31,25,31,9,9,31,31,9,9,31,31,9,9,31,31,9,9,31,31,9,9,31,25,
31,31,31,31,1610612763,1610612760,41,44,2684354584,2684354587,38,38,38,38,38,38,38,31,31,31,31,31,31,31,31,31,31,31,25,31,9,9,31,31,9,9,31,31,9,9,31,31,9,9,31,31,9,9,31,25,
31,31,31,31,1610612763,1610612760,41,44,2684354584,2684354587,38,38,38,38,38,38,38,31,31,31,31,31,31,31,31,36,31,31,25,25,25,25,25,25,25,25,25,25,25,25,25,25,25,25,25,25,25,25,25,25,
31,31,31,31,1610612763,1610612760,41,44,2684354584,2684354587,38,38,38,38,38,38,38,31,31,31,31,31,31,31,31,31,31,31,25,25,25,25,25,25,25,25,25,25,25,25,25,25,25,25,25,25,25,25,25,25,
31,32,31,31,1610612763,1610612760,41,44,2684354584,2684354587,27,27,27,27,27,27,27,27,27,27,27,27,27,27,27,27,27,27,27,27,27,27,27,27,27,27,27,27,27,27,27,27,27,27,27,27,27,27,27,27,
31,31,31,31,1610612763,1610612760,41,44,24,24,24,21,24,24,24,24,24,24,24,24,24,21,24,24,24,24,24,24,24,24,24,21,24,24,24,24,24,24,24,24,24,21,24,24,24,24,24,24,24,24,
31,31,29,31,1610612763,1610612760,41,44,1610612780,1610612780,1610612780,1610612780,1610612780,1610612780,1610612780,1610612780,1610612780,1610612780,1610612780,1610612780,1610612780,1610612780,1610612780,1610612780,1610612780,1610612780,1610612780,1610612780,1610612780,1610612780,1610612780,1610612780,1610612780,1610612780,1610612780,1610612780,1610612780,1610612780,1610612780,1610612780,1610612780,1610612780,1610612780,1610612780,1610612780,1610612780,1610612780,1610612780,1610612780,1610612780,
31,31,31,31,1610612763,1610612760,43,43,1610612777,1610612777,1610612777,1610612777,1610612777,1610612777,1610612777,1610612777,1610612777,1610612777,1610612777,1610612777,1610612777,1610612777,1610612777,1610612777,1610612777,1610612777,1610612777,1610612777,1610612777,1610612777,1610612777,1610612777,1610612777,1610612777,1610612777,1610612777,1610612777,1610612777,1610612777,1610612777,1610612777,1610612777,1610612777,1610612777,1610612777,1610612777,1610612777,1610612777,1610612777,1610612777,
25,25,25,25,1610612763,1610612763,3221225496,3221225496,3221225496,3221225496,3221225496,3221225493,3221225496,3221225496,3221225496,3221225496,3221225496,3221225496,3221225496,3221225496,3221225496,3221225493,3221225496,3221225496,3221225496,3221225496,3221225496,3221225496,3221225496,3221225496,3221225496,3221225493,3221225496,3221225496,3221225496,3221225496,3221225496,3221225496,3221225496,3221225496,3221225496,3221225493,3221225496,3221225496,3221225496,3221225496,3221225496,3221225496,3221225496,3221225496,
25,25,25,25,1610612763,1610612763,3221225499,3221225499,3221225499,3221225499,3221225499,3221225499,3221225499,3221225499,3221225499,3221225499,3221225499,3221225499,3221225499,3221225499,3221225499,3221225499,3221225499,3221225499,3221225499,3221225499,3221225499,3221225499,3221225499,3221225499,3221225499,3221225499,3221225499,3221225499,3221225499,3221225499,3221225499,3221225499,3221225499,3221225499,3221225499,3221225499,3221225499,3221225499,3221225499,3221225499,3221225499,3221225499,3221225499,3221225499,
25,25,25,25,25,25,25,25,25,25,25,25,25,25,25,25,25,25,25,25,25,25,25,25,25,25,25,25,25,25,25,25,25,25,25,25,25,25,25,25,25,25,25,25,25,25,25,25,25,25,
25,25,25,25,25,25,25,25,25,25,25,25,25,25,25,25,25,25,25,25,25,25,25,25,25,25,25,25,25,25,25,25,25,25,25,25,25,25,25,25,25,25,25,25,25,25,25,25,25,25,
25,25,25,25,25,25,25,25,25,25,25,25,25,25,25,25,25,25,25,25,25,25,25,25,25,25,25,25,25,25,25,25,25,25,25,25,25,25,25,25,25,25,25,25,25,25,25,25,25,25,
6,6,6,6,6,6,6,6,6,6,6,6,6,6,6,6,6,6,6,6,6,6,6,6,6,6,6,6,6,6,6,6,6,6,6,6,6,6,6,6,6,6,6,6,6,6,6,6,6,6,
6,6,6,6,6,6,6,6,6,6,6,6,6,6,6,6,6,6,6,6,6,6,6,6,6,6,6,6,6,6,6,6,6,6,6,6,6,6,6,6,6,6,6,6,6,6,6,6,6,6,
6,6,6,6,6,6,6,6,6,6,6,6,6,6,6,6,6,6,6,6,6,6,6,6,6,6,6,6,6,6,6,6,6,6,6,6,6,6,6,6,6,6,6,6,6,6,6,6,6,6,
2,2,6,6,6,6,6,6,6,6,6,6,6,6,6,6,6,6,6,6,6,6,6,6,6,6,6,6,6,6,6,6,6,6,6,6,6,6,6,6,6,6,6,6,6,6,6,6,6,6,
4,4,2,6,6,6,6,6,6,6,6,6,6,6,6,6,6,6,6,6,6,6,6,6,6,6,6,6,6,6,6,6,6,6,6,6,6,6,6,6,6,6,6,6,6,6,6,6,6,6,
1,1,4,2,2,6,6,6,6,6,6,6,6,6,6,6,6,6,6,6,6,6,6,6,6,6,2,2,2,2,2,2,2,6,6,2,2,2,6,6,6,6,6,6,6,6,6,6,6,6,
1,1,1,4,4,2,2,2,2,2,2,6,6,6,6,6,6,6,6,6,6,6,2,2,2,2,3,4,3,4,4,3,3,2,2,4,4,5,2,2,2,2,2,2,2,2,6,6,6,6,
1,1,1,1,1,3,3,4,5,3,3,2,2,2,2,6,6,6,2,2,2,2,3,4,4,3,1,1,1,1,1,1,1,4,4,1,1,1,3,3,4,3,4,4,3,3,2,2,2,2,
1,1,1,1,1,1,1,1,1,1,1,4,5,4,3,2,2,2,4,4,3,3,1,1,1,1,1,1,1,1,1,1,1,1,1,1,1,1,1,1,1,1,1,1,1,1,3,5,4,4,
1,1,1,1,1,1,1,1,1,1,1,1,1,1,1,3,5,4,1,1,1,1,1,1,1,1,1,1,1,1,1,1,1,1,1,1,1,1,1,1,1,1,1,1,1,1,1,1,1,1,
1,1,1,1,1,1,1,1,1,1,1,1,1,1,1,1,1,1,1,1,1,1,1,1,1,1,1,1,1,1,1,1,1,1,1,1,1,1,1,1,1,1,1,1,1,1,1,1,1,1,
1,1,1,1,1,1,1,1,1,1,1,1,1,1,1,1,1,1,1,1,1,1,1,1,1,1,1,1,1,1,1,1,1,1,1,1,1,1,1,1,1,1,1,1,1,1,1,1,1,1,
1,1,1,1,1,1,1,1,1,1,1,1,1,1,1,1,1,1,1,1,1,1,1,1,1,1,1,1,1,1,1,1,1,1,1,1,1,1,1,1,1,1,1,1,1,1,1,1,1,1,
1,1,1,1,1,1,1,1,1,1,1,1,1,1,1,1,1,1,1,1,1,1,1,1,1,1,1,1,1,1,1,1,1,1,1,1,1,1,1,1,1,1,1,1,1,1,1,1,1,1,
1,1,1,1,1,1,1,1,1,1,1,1,1,1,1,1,1,1,1,1,1,1,1,1,1,1,1,1,1,1,1,1,1,1,1,1,1,1,1,1,1,1,1,1,1,1,1,1,1,1,
1,1,1,1,1,1,1,1,1,1,1,1,1,1,1,1,1,1,1,1,1,1,1,1,1,1,1,1,1,1,1,1,1,1,1,1,1,1,1,1,1,1,1,1,1,1,1,1,1,1
</data>
 </layer>
 <layer id="4" name="Superior" width="50" height="50">
  <data encoding="csv">
0,0,12,0,0,0,0,0,0,0,0,0,0,0,0,0,0,0,0,0,0,0,12,0,0,0,0,0,0,0,0,0,0,0,0,0,0,0,0,0,0,0,0,0,0,12,0,0,0,0,
0,0,7,0,0,0,0,0,0,0,0,11,0,0,0,0,0,0,0,0,0,0,7,0,0,0,0,0,0,0,0,0,0,0,12,0,0,0,0,0,0,0,11,0,0,7,0,0,0,0,
0,0,0,0,0,0,0,11,0,0,0,8,0,0,0,0,0,0,0,12,0,0,0,0,0,0,12,0,0,0,0,0,0,0,7,0,0,11,0,0,0,0,8,0,0,0,0,0,0,0,
0,0,0,0,0,0,0,8,0,0,0,0,0,0,0,0,0,0,0,7,0,0,11,0,0,0,7,0,0,0,0,0,0,0,0,0,0,8,0,0,0,0,12,0,0,0,0,0,12,0,
0,11,0,0,0,0,0,0,0,0,0,0,0,0,0,0,0,0,0,0,0,0,8,0,0,0,0,0,0,0,0,0,12,0,0,0,0,0,0,0,0,0,7,0,0,0,0,0,7,0,
0,8,0,0,40,0,0,0,0,0,0,0,0,0,0,0,0,11,0,0,0,0,0,0,0,0,0,0,0,0,0,0,7,0,0,0,0,0,0,0,0,0,0,0,0,0,0,0,0,0,
0,0,0,0,37,0,0,0,0,0,0,0,0,23,0,0,0,8,0,0,0,0,0,0,0,0,0,0,0,0,0,0,0,0,0,0,0,0,0,0,0,0,0,0,0,0,0,0,0,0,
0,12,0,0,20,0,10,0,13,0,10,0,0,0,0,0,0,0,0,0,0,0,0,0,0,0,0,0,0,0,0,0,0,0,0,0,0,0,0,0,0,0,0,0,0,0,0,0,0,0,
0,7,0,0,40,23,0,0,20,0,0,0,16,20,0,12,0,0,0,0,0,0,0,0,0,0,0,0,0,0,0,0,0,0,0,0,0,0,0,0,0,0,0,0,0,0,0,0,0,0,
0,0,0,0,37,0,42,19,15,0,23,42,19,14,0,7,0,0,0,0,0,0,0,0,0,0,0,0,0,0,0,0,0,0,0,0,40,0,0,0,0,0,0,0,0,0,0,40,0,0,
0,0,0,12,20,14,26,22,0,0,0,26,22,0,0,0,0,0,0,0,0,0,0,40,0,0,0,0,0,0,0,0,0,0,0,0,37,0,0,0,0,0,0,0,0,0,0,37,0,0,
0,0,0,7,0,0,0,0,0,23,20,0,0,0,20,0,0,0,0,0,0,0,0,37,0,0,0,0,0,0,0,0,0,0,0,0,0,0,0,0,0,0,0,0,0,0,0,0,0,0,
0,0,0,0,0,0,0,0,0,0,0,0,0,0,0,0,0,0,0,0,0,0,0,0,0,0,0,0,0,0,0,0,0,0,0,0,0,0,0,0,0,0,0,0,0,0,0,0,0,0,
0,0,0,0,0,0,0,0,0,0,0,0,0,0,0,0,0,0,0,0,0,0,0,0,0,0,0,0,0,0,0,0,0,0,0,0,0,0,0,0,0,0,0,0,0,0,0,0,0,0,
0,11,0,0,0,40,0,0,0,0,0,0,0,0,0,0,0,0,0,0,0,0,0,0,0,0,0,0,0,37,0,0,0,0,0,0,0,0,3221225509,0,0,0,0,0,0,0,0,0,3221225509,0,
0,8,0,0,0,37,0,0,0,0,0,0,0,0,0,40,0,0,0,0,0,0,0,0,0,0,0,0,0,37,0,0,0,0,0,0,0,0,3221225509,0,0,0,0,0,0,0,0,0,3221225509,0,
0,0,0,0,0,0,0,0,0,0,0,0,0,0,0,37,0,0,0,0,0,0,0,0,0,0,0,0,0,37,0,0,0,0,0,0,0,0,3221225509,0,0,0,0,0,0,0,0,0,3221225509,0,
0,0,0,0,0,0,0,0,0,0,0,0,0,0,0,0,0,0,0,0,0,11,0,0,0,0,0,0,0,37,0,0,0,0,0,0,0,0,3221225509,0,0,0,0,0,0,0,0,0,3221225509,0,
0,0,0,0,0,0,0,0,0,0,0,0,0,0,0,0,0,0,0,0,0,8,0,0,0,0,11,0,0,37,0,0,0,0,0,0,0,0,3221225509,0,0,0,0,0,0,0,0,0,3221225509,0,
12,0,0,0,0,0,0,0,0,0,17,35,17,0,17,35,17,0,0,0,12,0,0,0,0,0,8,0,0,37,0,0,0,0,0,0,0,0,3221225509,0,0,0,0,0,0,0,0,0,3221225509,0,
7,0,0,0,0,0,0,0,0,0,0,0,0,0,0,0,0,11,0,0,7,0,0,11,0,0,0,12,0,37,0,0,0,0,0,0,0,0,3221225509,0,0,0,0,0,0,0,0,0,3221225509,0,
0,0,0,0,0,0,0,0,0,0,0,0,0,28,0,0,0,8,0,0,0,0,0,8,0,0,0,7,0,37,0,0,0,0,0,0,0,0,3221225509,0,0,0,0,0,0,0,0,0,3221225509,0,
0,0,0,0,0,0,0,0,0,0,0,0,0,0,0,0,0,0,0,12,0,11,0,0,0,12,0,0,0,37,12,0,0,0,0,0,0,0,3221225509,0,0,0,0,0,0,0,0,0,3221225509,0,
0,0,0,11,0,0,0,0,0,0,17,35,17,0,17,35,17,0,0,7,0,8,0,0,0,7,0,0,0,0,0,0,0,0,0,0,0,0,0,0,0,0,0,0,0,0,0,0,0,0,
0,0,0,8,0,0,0,0,0,0,0,0,0,0,0,0,0,0,0,0,0,0,0,0,0,0,0,0,0,0,0,0,0,0,0,0,0,0,0,0,0,0,0,0,0,0,0,0,0,0,
0,0,0,0,0,40,0,0,0,0,0,0,0,0,0,0,0,0,0,0,0,0,0,0,0,0,0,0,0,0,0,0,0,0,0,0,0,0,0,0,0,0,0,0,0,0,0,0,0,0,
0,12,0,0,0,37,0,0,0,0,0,0,0,0,0,0,0,0,0,0,0,0,0,0,0,0,0,0,0,0,0,0,0,0,0,0,0,0,0,0,0,0,0,0,0,0,0,0,0,0,
0,7,0,0,0,0,0,0,0,0,0,0,0,0,0,0,0,0,0,0,0,0,0,0,0,0,0,0,0,0,0,0,0,0,0,0,0,0,0,0,0,0,0,0,0,0,0,0,0,0,
0,0,0,0,0,0,0,0,0,0,0,0,0,0,40,0,0,0,0,0,0,0,0,0,0,40,0,0,0,0,0,0,0,0,0,0,40,0,0,0,0,0,0,0,0,0,0,40,0,0,
0,0,0,0,0,0,0,0,0,0,0,0,0,0,37,0,0,0,0,0,0,0,0,0,0,37,0,0,0,0,0,0,0,0,0,0,37,0,0,0,0,0,0,0,0,0,0,37,0,0,
0,0,0,0,0,0,0,0,0,0,0,0,0,0,0,0,0,0,0,0,0,0,0,0,0,0,0,0,0,0,0,0,0,0,0,0,0,0,0,0,0,0,0,0,0,0,0,0,0,0,
0,0,0,0,0,0,0,0,0,0,0,0,0,0,0,0,0,0,0,0,0,0,0,0,0,0,0,0,0,0,0,0,0,0,0,0,0,0,0,0,0,0,0,0,0,0,0,0,0,0,
0,0,0,0,0,0,0,0,0,0,0,0,0,0,0,0,0,0,0,0,0,0,0,0,0,0,0,0,0,0,0,0,0,0,0,0,0,0,0,0,0,0,0,0,0,0,0,0,0,0,
0,0,0,0,0,0,0,0,0,0,0,0,0,0,0,0,0,0,0,0,0,0,0,0,0,0,0,0,0,0,0,0,0,0,0,0,0,0,0,0,0,0,0,0,0,0,0,0,0,0,
0,0,0,0,0,0,0,0,0,0,0,0,0,0,0,0,0,0,0,0,0,0,0,0,0,0,0,0,0,0,0,0,0,0,0,0,0,0,0,0,0,0,0,0,0,0,0,0,0,0,
0,0,0,0,0,0,0,0,0,0,0,0,0,0,0,0,0,0,0,0,0,0,0,0,0,0,0,0,0,0,0,0,0,0,0,0,0,0,0,0,0,0,0,0,0,0,0,0,0,0,
0,0,0,0,0,0,0,0,0,0,0,0,0,0,0,0,0,0,0,0,0,0,0,0,0,0,0,0,0,0,0,0,0,0,0,0,0,0,0,0,0,0,0,0,0,0,0,0,0,0,
0,0,0,0,0,0,0,0,0,0,0,0,0,0,0,0,0,0,0,0,0,0,0,0,0,0,0,0,0,0,0,0,0,0,0,0,0,0,0,0,0,0,0,0,0,0,0,0,0,0,
0,0,0,0,0,0,0,0,0,0,0,0,0,0,0,0,0,0,0,0,0,0,0,0,0,0,0,0,0,0,0,0,0,0,0,0,0,0,0,0,0,0,0,0,0,0,0,0,0,0,
0,0,0,0,0,0,0,0,0,0,0,0,0,0,0,0,0,0,0,0,0,0,0,0,0,0,0,0,0,0,0,0,0,0,0,0,0,0,0,0,0,0,0,0,0,0,0,0,0,0,
0,0,0,0,0,0,0,0,0,0,0,0,0,0,0,0,0,0,0,0,0,0,0,0,0,0,0,0,0,0,0,0,0,0,0,0,0,0,0,0,0,0,0,0,0,0,0,0,0,0,
0,0,0,0,0,0,0,0,0,0,0,0,0,0,0,0,0,0,0,0,0,0,0,0,0,0,0,0,0,0,0,0,0,0,0,0,0,0,0,0,0,0,0,0,0,0,0,0,0,0,
0,0,0,0,0,0,0,0,0,0,0,0,0,0,0,0,0,0,0,0,0,0,0,0,0,0,0,0,0,0,0,0,0,0,0,0,0,0,0,0,0,0,0,0,0,0,0,0,0,0,
0,0,0,0,0,0,0,0,0,0,0,0,0,0,0,0,0,0,0,0,0,0,0,0,0,0,0,0,0,0,0,0,0,0,0,0,0,0,0,0,0,0,0,0,0,0,0,0,0,0,
0,0,0,0,0,0,0,0,0,0,0,0,0,0,0,0,0,0,0,0,0,0,0,0,0,0,0,0,0,0,0,0,0,0,0,0,0,0,0,0,0,0,0,0,0,0,0,0,0,0,
0,0,0,0,0,0,0,0,0,0,0,0,0,0,0,0,0,0,0,0,0,0,0,0,0,0,0,0,0,0,0,0,0,0,0,0,0,0,0,0,0,0,0,0,0,0,0,0,0,0,
0,0,0,0,0,0,0,0,0,0,0,0,0,0,0,0,0,0,0,0,0,0,0,0,0,0,0,0,0,0,0,0,0,0,0,0,0,0,0,0,0,0,0,0,0,0,0,0,0,0,
0,0,0,0,0,0,0,0,0,0,0,0,0,0,0,0,0,0,0,0,0,0,0,0,0,0,0,0,0,0,0,0,0,0,0,0,0,0,0,0,0,0,0,0,0,0,0,0,0,0,
0,0,0,0,0,0,0,0,0,0,0,0,0,0,0,0,0,0,0,0,0,0,0,0,0,0,0,0,0,0,0,0,0,0,0,0,0,0,0,0,0,0,0,0,0,0,0,0,0,0,
0,0,0,0,0,0,0,0,0,0,0,0,0,0,0,0,0,0,0,0,0,0,0,0,0,0,0,0,0,0,0,0,0,0,0,0,0,0,0,0,0,0,0,0,0,0,0,0,0,0
</data>
 </layer>
 <layer id="6" name="Superior2" width="50" height="50">
  <data encoding="csv">
0,0,0,0,0,0,0,0,0,0,0,0,0,0,0,0,0,0,0,0,0,0,0,0,0,0,0,0,0,0,0,0,0,0,0,0,0,0,0,0,0,0,0,0,0,0,0,0,0,0,
0,0,0,0,0,0,0,0,0,0,0,0,0,0,0,0,0,0,0,0,0,0,0,0,0,0,0,0,0,0,0,0,0,0,0,0,0,0,0,0,0,0,0,0,0,0,0,0,0,0,
0,0,0,0,0,0,0,0,0,0,0,0,0,0,0,0,0,0,0,0,0,0,0,0,0,0,0,0,0,0,0,0,0,0,0,0,0,0,0,0,0,0,0,0,0,0,0,0,0,0,
0,0,0,0,0,0,0,0,0,0,0,0,0,0,0,0,0,0,0,0,0,0,0,0,0,0,0,0,0,0,0,0,0,0,0,0,0,0,0,0,0,0,0,0,0,0,0,0,0,0,
0,0,0,0,0,0,0,0,0,0,0,0,0,0,0,0,0,0,0,0,0,0,0,0,0,0,0,0,0,0,0,0,0,0,0,0,0,0,0,0,0,0,0,0,0,0,0,0,0,0,
0,0,0,0,0,0,0,0,0,0,0,0,0,0,0,0,0,0,0,0,0,0,0,0,0,0,0,0,0,0,0,0,0,0,0,0,0,0,0,0,0,0,0,0,0,0,0,0,0,0,
0,0,0,0,0,0,0,0,0,0,0,0,0,0,0,0,0,0,0,0,0,0,0,0,0,0,0,0,0,0,0,0,0,0,0,0,0,0,0,0,0,0,0,0,0,0,0,0,0,0,
0,0,0,0,0,0,0,0,0,0,0,0,0,0,0,0,0,0,0,0,0,0,0,0,0,0,0,0,0,0,0,0,0,0,0,0,0,0,0,0,0,0,0,0,0,0,0,0,0,0,
0,0,0,0,0,0,0,0,0,0,0,0,0,0,0,0,0,0,0,0,0,0,0,0,0,0,0,0,0,0,0,0,0,0,0,0,0,0,0,0,0,0,0,0,0,0,0,0,0,0,
0,0,0,0,0,0,0,0,0,0,0,0,0,0,0,0,0,0,0,0,0,0,0,0,0,0,0,0,0,0,0,0,0,0,0,0,0,0,0,0,0,0,0,0,0,0,0,0,0,0,
0,0,0,0,0,0,0,0,0,0,0,0,0,0,0,0,0,0,0,0,0,0,0,0,0,0,0,0,0,0,0,0,0,0,0,0,0,0,0,0,0,0,0,0,0,0,0,0,0,0,
0,0,0,0,0,0,0,0,0,0,0,0,0,0,0,0,0,0,0,0,0,0,0,0,0,0,0,0,0,0,0,0,0,0,0,0,0,0,0,0,0,0,0,0,0,0,0,0,0,0,
0,0,0,0,0,0,0,0,0,0,0,0,0,0,0,0,0,0,0,0,0,0,0,0,0,0,0,0,0,0,0,0,0,0,0,0,0,0,0,0,0,0,0,0,0,0,0,0,0,0,
0,0,0,0,0,0,0,0,0,0,0,0,0,0,0,0,0,0,0,0,0,0,0,0,0,0,0,0,0,0,0,0,0,0,0,0,0,0,0,0,0,0,0,0,0,0,0,0,0,0,
0,0,0,0,0,0,0,0,0,0,0,0,0,0,0,0,0,0,0,0,0,0,0,0,0,0,0,0,0,2684354597,2684354597,2684354597,2684354597,2684354597,2684354597,2684354597,2684354597,2684354597,2684354597,2684354597,2684354597,2684354597,2684354597,2684354597,2684354597,2684354597,2684354597,2684354597,2684354597,0,
0,0,0,0,0,0,0,0,0,0,0,0,0,0,0,0,0,0,0,0,0,0,0,0,0,0,0,0,0,0,0,0,0,0,0,0,0,0,0,0,0,0,0,0,0,0,0,0,0,0,
0,0,0,0,0,0,0,0,0,0,0,0,0,0,0,0,0,0,0,0,0,0,0,0,0,0,0,0,0,1610612773,1610612773,1610612773,0,0,0,0,0,1610612773,1610612773,1610612773,1610612773,0,0,0,0,0,1610612773,1610612773,1610612773,0,
0,0,0,0,0,0,0,0,0,0,0,0,0,0,0,0,0,0,0,0,0,0,0,0,0,0,0,0,0,0,0,3221225509,0,0,0,0,3221225509,0,0,0,3221225509,0,0,0,0,0,37,0,0,0,
0,0,0,0,0,0,0,0,0,0,0,0,0,0,0,0,0,0,0,0,0,0,0,0,0,0,0,0,0,0,0,3221225509,0,0,0,0,3221225509,0,0,0,3221225509,0,0,0,0,0,37,0,0,0,
0,0,0,0,0,0,0,0,0,0,0,0,0,0,0,0,0,0,0,0,0,0,0,0,0,0,0,0,0,0,0,3221225509,0,0,0,0,3221225509,0,0,0,3221225509,0,0,0,0,0,37,0,0,0,
0,0,0,0,0,0,0,0,0,0,0,0,0,0,0,0,0,0,0,0,0,0,0,0,0,0,0,0,0,2684354597,2684354597,2684354597,0,0,0,0,0,2684354597,2684354597,2684354597,2684354597,0,0,0,0,0,2684354597,2684354597,2684354597,0,
0,0,0,0,0,0,0,0,0,0,0,0,0,0,0,0,0,0,0,0,0,0,0,0,0,0,0,0,0,0,0,0,0,0,0,0,0,0,0,0,0,0,0,0,0,0,0,0,0,0,
0,0,0,0,0,0,0,0,0,0,0,0,0,0,0,0,0,0,0,0,0,0,0,0,0,0,0,0,0,1610612773,1610612773,1610612773,1610612773,1610612773,1610612773,1610612773,1610612773,1610612773,1610612773,1610612773,1610612773,1610612773,1610612773,1610612773,1610612773,1610612773,1610612773,1610612773,1610612773,0,
0,0,0,0,0,0,0,0,0,0,0,0,0,0,0,0,0,0,0,0,0,0,0,0,0,0,0,0,0,0,0,0,0,0,0,0,0,0,0,0,0,0,0,0,0,0,0,0,0,0,
0,0,0,0,0,0,0,0,0,0,0,0,0,0,0,0,0,0,0,0,0,0,0,0,0,0,0,0,0,0,0,0,0,0,0,0,0,0,0,0,0,0,0,0,0,0,0,0,0,0,
0,0,0,0,0,0,0,0,0,0,0,0,0,0,0,0,0,0,0,0,0,0,0,0,0,0,0,0,0,0,0,0,0,0,0,0,0,0,0,0,0,0,0,0,0,0,0,0,0,0,
0,0,0,0,0,0,0,0,0,0,0,0,0,0,0,0,0,0,0,0,0,0,0,0,0,0,0,0,0,0,0,0,0,0,0,0,0,0,0,0,0,0,0,0,0,0,0,0,0,0,
0,0,0,0,0,0,0,0,0,0,0,0,0,0,0,0,0,0,0,0,0,0,0,0,0,0,0,0,0,0,0,0,0,0,0,0,0,0,0,0,0,0,0,0,0,0,0,0,0,0,
0,0,0,0,0,0,0,0,0,0,0,0,0,0,0,0,0,0,0,0,0,0,0,0,0,0,0,0,0,0,0,0,0,0,0,0,0,0,0,0,0,0,0,0,0,0,0,0,0,0,
0,0,0,0,0,0,0,0,0,0,0,0,0,0,0,0,0,0,0,0,0,0,0,0,0,0,0,0,0,0,0,0,0,0,0,0,0,0,0,0,0,0,0,0,0,0,0,0,0,0,
0,0,0,0,0,0,0,0,0,0,0,0,0,0,0,0,0,0,0,0,0,0,0,0,0,0,0,0,0,0,0,0,0,0,0,0,0,0,0,0,0,0,0,0,0,0,0,0,0,0,
0,0,0,0,0,0,0,0,0,0,0,0,0,0,0,0,0,0,0,0,0,0,0,0,0,0,0,0,0,0,0,0,0,0,0,0,0,0,0,0,0,0,0,0,0,0,0,0,0,0,
0,0,0,0,0,0,0,0,0,0,0,0,0,0,0,0,0,0,0,0,0,0,0,0,0,0,0,0,0,0,0,0,0,0,0,0,0,0,0,0,0,0,0,0,0,0,0,0,0,0,
0,0,0,0,0,0,0,0,0,0,0,0,0,0,0,0,0,0,0,0,0,0,0,0,0,0,0,0,0,0,0,0,0,0,0,0,0,0,0,0,0,0,0,0,0,0,0,0,0,0,
0,0,0,0,0,0,0,0,0,0,0,0,0,0,0,0,0,0,0,0,0,0,0,0,0,0,0,0,0,0,0,0,0,0,0,0,0,0,0,0,0,0,0,0,0,0,0,0,0,0,
0,0,0,0,0,0,0,0,0,0,0,0,0,0,0,0,0,0,0,0,0,0,0,0,0,0,0,0,0,0,0,0,0,0,0,0,0,0,0,0,0,0,0,0,0,0,0,0,0,0,
0,0,0,0,0,0,0,0,0,0,0,0,0,0,0,0,0,0,0,0,0,0,0,0,0,0,0,0,0,0,0,0,0,0,0,0,0,0,0,0,0,0,0,0,0,0,0,0,0,0,
0,0,0,0,0,0,0,0,0,0,0,0,0,0,0,0,0,0,0,0,0,0,0,0,0,0,0,0,0,0,0,0,0,0,0,0,0,0,0,0,0,0,0,0,0,0,0,0,0,0,
0,0,0,0,0,0,0,0,0,0,0,0,0,0,0,0,0,0,0,0,0,0,0,0,0,0,0,0,0,0,0,0,0,0,0,0,0,0,0,0,0,0,0,0,0,0,0,0,0,0,
0,0,0,0,0,0,0,0,0,0,0,0,0,0,0,0,0,0,0,0,0,0,0,0,0,0,0,0,0,0,0,0,0,0,0,0,0,0,0,0,0,0,0,0,0,0,0,0,0,0,
0,0,0,0,0,0,0,0,0,0,0,0,0,0,0,0,0,0,0,0,0,0,0,0,0,0,0,0,0,0,0,0,0,0,0,0,0,0,0,0,0,0,0,0,0,0,0,0,0,0,
0,0,0,0,0,0,0,0,0,0,0,0,0,0,0,0,0,0,0,0,0,0,0,0,0,0,0,0,0,0,0,0,0,0,0,0,0,0,0,0,0,0,0,0,0,0,0,0,0,0,
0,0,0,0,0,0,0,0,0,0,0,0,0,0,0,0,0,0,0,0,0,0,0,0,0,0,0,0,0,0,0,0,0,0,0,0,0,0,0,0,0,0,0,0,0,0,0,0,0,0,
0,0,0,0,0,0,0,0,0,0,0,0,0,0,0,0,0,0,0,0,0,0,0,0,0,0,0,0,0,0,0,0,0,0,0,0,0,0,0,0,0,0,0,0,0,0,0,0,0,0,
0,0,0,0,0,0,0,0,0,0,0,0,0,0,0,0,0,0,0,0,0,0,0,0,0,0,0,0,0,0,0,0,0,0,0,0,0,0,0,0,0,0,0,0,0,0,0,0,0,0,
0,0,0,0,0,0,0,0,0,0,0,0,0,0,0,0,0,0,0,0,0,0,0,0,0,0,0,0,0,0,0,0,0,0,0,0,0,0,0,0,0,0,0,0,0,0,0,0,0,0,
0,0,0,0,0,0,0,0,0,0,0,0,0,0,0,0,0,0,0,0,0,0,0,0,0,0,0,0,0,0,0,0,0,0,0,0,0,0,0,0,0,0,0,0,0,0,0,0,0,0,
0,0,0,0,0,0,0,0,0,0,0,0,0,0,0,0,0,0,0,0,0,0,0,0,0,0,0,0,0,0,0,0,0,0,0,0,0,0,0,0,0,0,0,0,0,0,0,0,0,0,
0,0,0,0,0,0,0,0,0,0,0,0,0,0,0,0,0,0,0,0,0,0,0,0,0,0,0,0,0,0,0,0,0,0,0,0,0,0,0,0,0,0,0,0,0,0,0,0,0,0,
0,0,0,0,0,0,0,0,0,0,0,0,0,0,0,0,0,0,0,0,0,0,0,0,0,0,0,0,0,0,0,0,0,0,0,0,0,0,0,0,0,0,0,0,0,0,0,0,0,0
</data>
 </layer>
</map>
