<?xml version="1.0" encoding="UTF-8"?>
<map version="1.10" tiledversion="1.12.2" orientation="orthogonal" renderorder="right-down" width="50" height="50" tilewidth="16" tileheight="16" infinite="0" nextlayerid="2" nextobjectid="1">
 <tileset firstgid="1" name="spritesheet_ma" tilewidth="16" tileheight="16" tilecount="30" columns="5">
  <image source="../tiles/mata_atlantica/spritesheet_ma.png" width="80" height="96"/>
 </tileset>
 <layer id="1" name="Camada de Blocos 1" width="50" height="50">
  <data encoding="csv">
1,1,1,1,1,1,1,1,1,1,1,1,1,1,1,1,1,1,1,1,1,1,1,1,1,1,4,1,1,1,1,1,1,1,1,1,1,1,1,1,4,1,1,1,2,1,1,1,1,1,
1,1,1,1,4,1,1,1,1,1,1,1,1,1,1,1,4,7,1,1,1,1,1,1,1,3,1,1,1,1,1,1,1,7,6,1,1,1,1,1,1,1,1,5,3,1,1,1,1,7,
1,1,1,1,1,8,1,1,1,1,3,1,1,5,1,1,1,1,1,1,1,1,1,1,1,1,1,1,1,1,1,1,1,1,1,1,1,1,4,1,1,1,7,1,1,1,1,1,1,1,
4,1,1,1,1,1,1,1,1,1,2,1,1,1,1,1,1,1,1,1,1,1,4,1,1,1,1,7,5,1,5,1,1,1,1,1,1,1,5,1,1,1,7,1,1,1,1,1,1,3,
1,1,5,1,1,3,1,1,1,1,5,1,1,2,1,1,1,1,7,8,1,1,1,1,1,1,1,1,1,1,1,1,1,1,1,1,1,1,8,1,1,1,1,1,1,1,1,5,1,1,
1,1,1,1,1,1,1,3,1,1,1,5,1,1,5,1,1,1,1,1,1,1,1,1,3,1,1,17,14,14,14,14,14,14,14,14,14,14,14,14,14,14,14,14,14,14,14,14,14,14,
1,1,1,1,1,1,1,1,1,1,4,1,1,1,1,1,1,1,1,1,8,2,1,1,1,1,1,13,12,9,12,12,11,9,11,10,9,12,10,10,10,11,9,10,9,12,10,10,12,9,
1,1,1,5,1,1,1,1,1,1,3,7,1,2,2,8,1,7,1,1,1,1,1,1,1,1,1,13,9,9,16,16,16,16,16,16,16,16,16,16,16,16,16,16,16,16,16,16,16,16,
1,1,1,1,1,1,1,1,1,1,2,1,1,1,1,1,1,1,1,1,1,1,1,1,1,1,1,13,10,15,1,1,1,1,1,1,1,1,1,1,1,1,1,1,1,1,1,1,7,1,
1,1,1,1,2,2,2,2,1,1,1,1,1,8,1,1,1,1,1,1,1,1,1,1,1,1,1,13,12,15,1,1,1,1,1,1,1,1,1,1,1,1,1,1,1,1,1,1,1,1,
1,1,1,5,1,1,6,1,1,1,1,1,1,1,3,1,1,3,1,7,1,1,1,1,1,1,1,13,9,15,1,1,1,1,1,1,1,1,1,1,1,1,1,1,1,1,1,1,1,1,
1,1,1,1,1,1,1,1,1,1,1,5,4,1,1,1,1,1,1,1,1,1,1,3,1,1,4,13,10,15,1,1,1,5,1,1,1,6,1,1,1,1,2,1,1,1,1,1,1,1,
1,1,1,1,1,1,1,1,1,1,1,1,1,1,1,1,1,1,1,1,1,1,1,1,1,1,1,13,10,15,1,1,1,1,1,1,1,1,1,1,1,1,1,1,8,1,1,1,1,1,
1,1,4,1,1,1,1,2,1,1,17,14,14,14,14,14,14,14,14,14,14,14,14,14,14,14,14,9,12,15,1,1,1,1,1,1,1,1,6,1,1,1,1,1,1,1,1,1,1,1,
1,1,2,2,1,7,1,1,1,1,13,12,11,11,11,11,11,11,11,11,12,10,12,9,11,11,12,11,9,15,1,1,1,1,1,1,1,1,1,1,1,1,1,1,1,1,1,5,1,1,
1,1,1,1,1,1,1,1,1,1,13,9,11,16,16,16,16,16,16,16,16,16,16,16,16,16,16,16,16,19,1,1,1,1,1,1,1,5,1,1,1,1,1,5,1,1,1,1,1,1,
1,1,1,1,1,5,1,1,1,1,13,9,15,1,1,1,1,1,1,1,1,1,1,1,2,1,1,1,1,1,1,1,1,1,1,1,1,1,1,1,1,1,1,7,1,1,1,1,1,1,
1,1,1,4,1,1,4,1,5,1,13,9,15,1,1,1,1,1,1,4,1,1,1,1,1,1,1,1,1,1,1,1,8,1,1,1,1,1,1,1,1,1,1,1,1,8,6,1,4,1,
1,1,3,1,1,1,1,1,1,1,13,11,15,1,1,1,3,1,1,1,1,1,1,1,1,1,6,1,1,1,1,1,1,1,1,1,1,1,1,1,4,4,1,1,1,4,1,1,1,1,
1,1,1,1,1,1,1,1,1,1,13,10,15,3,1,1,1,1,1,1,1,1,1,1,1,1,1,1,1,1,1,3,1,1,1,1,8,1,1,1,1,1,1,1,1,1,1,1,1,1,
1,1,1,1,1,1,1,1,3,1,13,9,15,1,1,1,1,1,3,1,1,4,1,1,1,2,1,1,1,1,1,1,1,1,1,1,1,1,1,1,3,1,1,1,1,1,1,1,1,1,
1,8,8,1,8,1,1,1,1,1,13,11,15,1,1,1,1,1,1,1,5,3,1,1,3,1,1,1,1,1,1,1,1,1,1,1,6,8,1,1,1,1,6,1,1,1,1,1,1,1,
1,1,1,6,8,1,1,1,1,1,13,11,15,1,1,1,1,2,1,1,1,1,1,1,1,1,1,1,1,1,1,1,1,1,1,1,1,1,1,1,1,1,4,1,1,3,5,6,1,1,
1,1,1,2,1,1,1,1,7,1,13,11,15,1,1,7,1,1,1,1,1,1,1,1,1,1,6,1,1,4,1,1,1,1,1,1,1,1,1,1,1,1,6,1,2,1,1,1,1,1,
1,1,1,1,1,1,1,1,1,1,13,11,15,1,1,1,6,1,1,1,1,1,1,1,7,1,1,1,1,1,1,1,1,1,1,4,1,1,1,1,1,1,1,8,3,1,1,1,1,1,
1,8,3,5,1,1,1,1,1,1,13,11,15,1,1,1,1,1,1,1,1,1,1,8,1,1,1,1,1,1,1,5,6,1,1,1,1,1,1,1,1,1,3,1,1,1,1,7,1,1,
1,1,1,5,1,1,6,1,2,1,13,11,15,1,1,1,1,1,1,1,1,1,5,6,1,1,1,1,1,1,1,1,1,2,5,3,2,5,1,1,1,1,1,1,1,1,1,5,1,1,
1,1,1,6,1,1,1,1,1,1,13,10,15,1,1,4,1,1,1,1,2,1,1,1,1,1,6,2,1,1,1,1,1,1,1,4,1,1,1,1,1,5,1,1,1,1,1,4,1,1,
7,1,1,4,1,1,1,1,1,1,13,9,15,1,1,1,1,1,1,1,1,1,1,1,1,1,1,1,1,1,1,1,1,1,1,1,1,1,1,1,1,1,1,1,1,2,1,1,1,1,
1,1,1,1,1,1,1,1,1,1,13,11,15,1,1,1,1,1,1,1,1,1,1,1,2,1,1,1,1,1,7,1,1,1,1,1,1,1,1,5,3,1,2,6,6,1,1,1,1,6,
1,1,1,1,1,4,8,1,1,1,13,9,15,1,1,1,1,1,1,1,1,1,6,1,1,1,1,1,1,1,1,1,1,1,1,1,1,4,1,1,5,1,1,1,1,1,1,1,1,1,
22,22,23,2,1,1,1,1,3,1,13,10,15,1,1,1,1,5,1,1,1,1,1,1,1,1,1,1,1,1,1,5,1,1,1,1,1,1,8,1,5,1,1,1,1,1,1,1,1,5,
22,23,21,23,23,1,1,1,1,6,13,12,15,1,4,1,1,1,1,1,6,1,1,1,1,1,4,1,1,1,1,1,1,1,8,1,8,1,1,1,1,1,1,1,1,6,2,1,1,1,
21,22,24,24,21,22,1,1,1,1,13,10,15,1,1,1,1,1,1,1,1,1,1,1,1,1,1,1,1,1,1,1,1,1,1,1,1,1,1,1,1,4,1,1,1,1,1,1,1,8,
21,24,24,24,24,22,21,21,8,1,13,9,10,14,14,14,14,14,14,14,14,14,14,14,14,14,14,14,14,14,14,14,14,14,14,14,14,14,14,14,14,14,14,14,14,14,14,14,14,14,
21,21,23,21,21,24,21,22,24,21,13,11,12,11,9,9,12,9,12,9,9,10,12,10,12,11,11,10,11,10,9,12,11,9,11,11,11,10,12,11,10,9,11,10,10,11,9,12,9,11,
21,24,23,21,21,23,24,24,23,21,20,16,16,16,16,16,16,16,16,16,16,16,16,16,16,16,16,16,16,16,16,16,16,16,16,16,16,16,16,16,16,16,16,16,16,16,16,16,16,16,
21,22,24,22,24,24,23,21,21,21,21,21,21,21,21,21,21,21,21,21,21,22,23,24,21,23,23,22,21,21,21,21,21,21,21,21,21,21,21,21,21,21,21,21,21,21,22,22,21,21,
21,21,21,21,24,24,21,21,21,21,21,24,21,24,21,23,23,23,22,23,23,24,24,21,21,21,21,21,24,24,21,21,22,22,24,23,21,24,21,21,21,24,24,24,24,21,21,21,21,21,
25,25,21,22,23,23,22,21,22,22,21,21,22,21,22,24,21,22,24,24,22,21,21,22,22,21,23,22,22,21,22,24,21,22,23,23,23,21,22,22,24,22,23,23,23,21,22,22,21,21,
29,28,25,25,21,24,22,23,23,21,22,24,22,23,23,24,24,22,24,23,23,24,21,22,24,21,22,23,24,24,22,22,21,21,23,23,21,24,23,21,21,24,24,21,23,21,24,24,22,21,
26,26,29,27,25,24,23,22,24,24,24,24,24,24,22,24,22,24,21,23,22,22,22,24,22,22,23,21,23,21,21,21,21,22,22,23,23,23,23,21,21,22,23,23,24,22,23,24,23,21,
26,26,26,26,29,25,25,25,23,21,22,23,23,23,22,24,22,24,21,22,23,21,23,22,23,23,24,21,21,21,22,23,23,24,22,21,21,24,23,21,23,23,21,22,24,24,21,21,22,21,
26,26,26,26,26,27,28,27,25,25,25,25,25,25,25,25,25,25,25,25,25,25,25,25,25,25,25,25,25,25,25,25,25,25,25,25,25,25,25,25,25,25,25,25,25,25,25,25,25,25,
26,26,26,26,26,26,26,26,29,28,28,27,27,27,28,29,29,29,27,29,29,29,28,28,27,28,27,29,29,29,29,29,27,27,29,28,28,27,27,29,28,29,28,28,27,29,27,28,29,27,
26,26,26,26,26,26,26,26,26,26,26,26,26,26,26,26,26,26,26,26,26,26,26,26,26,26,26,26,26,26,26,26,26,26,26,26,26,26,26,26,26,26,26,26,26,26,26,26,26,26,
26,26,26,26,26,26,26,26,26,26,26,26,26,26,26,26,26,26,26,26,26,26,26,26,26,26,26,26,26,26,26,26,26,26,26,26,26,26,26,26,26,26,26,26,26,26,26,26,26,26,
26,26,26,26,26,26,26,26,26,26,26,26,26,26,26,26,26,26,26,26,26,26,26,26,26,26,26,26,26,26,26,26,26,26,26,26,26,26,26,26,26,26,26,26,26,26,26,26,26,26,
26,26,26,26,26,26,26,26,26,26,26,26,26,26,26,26,26,26,26,26,26,26,26,26,26,26,26,26,26,26,26,26,26,26,26,26,26,26,26,26,26,26,26,26,26,26,26,26,26,26,
26,26,26,26,26,26,26,26,26,26,26,26,26,26,26,26,26,26,26,26,26,26,26,26,26,26,26,26,26,26,26,26,26,26,26,26,26,26,26,26,26,26,26,26,26,26,26,26,26,26
</data>
 </layer>
</map>
